X: 10334
T: Don Juan McKenna's
R: jig
M: 6/8
K: Amajor
|:F2E EFA|BAB c2B|AFF FEB|AFF FED|
DEE EFA|BAB c2f|ecB BAB|1 cAA ABA:|2 cAA Ace||
|:f3 ecB|BAF F2E|Fag ece|f3 fcB|
c2f ecB|BAF FGA|BcB BAB|1 cAA Ace:|2 cAA A3||

